packages/ffe-icons/icons/open/300/sm/single_bed.svg

<svg xmlns="http://www.w3.org/2000/svg" height="20" viewBox="0 -960 960 960" width="20"><path d="M212.001-515.307q0-26.999 18.843-45.845 18.842-18.847 45.465-18.847h7.692v-83.691q0-26.623 18.859-45.465 18.858-18.842 45.504-18.842h263.605q26.645 0 45.337 18.842 18.693 18.842 18.693 45.465v83.691h7.692q26.923 0 45.615 18.843 18.693 18.842 18.693 45.465v121.69q0 15.829-11.086 26.914-11.085 11.086-26.914 11.086l-28.769 91.307q-1.615 1.846-2.961 3.27-1.346 1.423-4.192 1.423h-4.154q-2.846 0-4.192-1.423-1.346-1.424-2.961-3.27l-28.769-91.307H325.999l-28.769 91.307q-1.615 1.846-2.961 3.27-1.346 1.423-4.192 1.423h-4.154q-2.846 0-4.192-1.423-1.346-1.424-2.961-3.27l-28.769-91.307q-15.829 0-26.914-11.086-11.086-11.085-11.086-26.914v-121.306Zm293.998-64.692H624v-83.691q0-5.385-3.462-8.847-3.462-3.462-8.847-3.462H505.999v96Zm-169.999 0h118.001v-96H348.309q-5.385 0-8.847 3.462Q336-669.075 336-663.69v83.691ZM264-408h432v-107.691q0-5.385-3.462-8.847-3.462-3.462-8.847-3.462H276.309q-5.385 0-8.847 3.462-3.462 3.462-3.462 8.847V-408Zm432 0H264h432Z"/></svg>

<svg xmlns="http://www.w3.org/2000/svg" height="20" viewBox="0 -960 960 960" width="20"><path d="M212-515.31q0-27 18.84-45.84Q249.69-580 276.31-580H284v-83.69q0-26.62 18.86-45.46Q321.72-728 348.36-728h263.61q26.64 0 45.34 18.85Q676-690.31 676-663.69V-580h7.69q26.92 0 45.62 18.84Q748-542.31 748-515.69V-394q0 15.83-11.09 26.91Q725.83-356 710-356l-28.77 91.31q-1.62 1.84-2.96 3.27-1.35 1.42-4.19 1.42h-4.16q-2.84 0-4.19-1.42-1.34-1.43-2.96-3.27L634-356H326l-28.77 91.31q-1.62 1.84-2.96 3.27-1.35 1.42-4.19 1.42h-4.16q-2.84 0-4.19-1.42-1.34-1.43-2.96-3.27L250-356q-15.83 0-26.91-11.09Q212-378.17 212-394v-121.31ZM506-580h118v-83.69q0-5.38-3.46-8.85-3.46-3.46-8.85-3.46H506v96Zm-170 0h118v-96H348.31q-5.39 0-8.85 3.46-3.46 3.47-3.46 8.85V-580Zm-72 172h432v-107.69q0-5.39-3.46-8.85t-8.85-3.46H276.31q-5.39 0-8.85 3.46t-3.46 8.85V-408Zm432 0H264h432Z"/></svg>
